X:1
T:[ID 3-1]
T:[ID 3-1]
T:Bezeichnung standardisiert: Menuet [mit Trio] Menuet Con Trio 5
T:Urheber unbekannt Datum in der hier transkribierten schriftlichen Quelle: 1767
C:Urheber unbekannt
C:Datum in der hier transkribierten schriftlichen Quelle: 1767
L:1/8
M:3/4
K:D
V:1 treble 
V:1
 !arpeggio![DFAd]4 DE | (G2 E2) D2 | !arpeggio![EAce]4 A,B, | C2 B,2 A,2 | (af)(fd) d2 | %5
 (af)(fd) d2 | ef [eg]2 [df]2 |{[df]} [ce]6 :: [ce]3 [df][ce][df] | [ce]2 [df]2 [eg]2 | %10
 [df]3 [eg][df][eg] | [df]2 [eg]2 [fa]2 | (af)(fd) d2 | affd d2 | (3gfe d2 Tc2 | d6 :| x6 :| %17
[M:3/4]"^Trio" !fermata![FA]3 [GB][FA][EG] | [DF][EG] [FA]4 | (3BAG F2 E2 | (3FED D4 | %21
 (3FGA [FA]4 | (3EFG [EG]4 | (3FGA [EG]2 [DF]2 |{[DF]} [CE]6 :: E2 (3GFE F2 | E2 (3cde d2 | %27
 EF [EG]2 [DF]2 |{[DF]} [CE]6 | [FA]3 [GB][FA][EG] | [DF][EG] [FA]4 | (3BAG F2 TE2 | D6 :| %33

